bundles/org.openhab.ui.habpanel/web/assets/icons/freepik-housethings/livingroom-armchair.svg

<svg xmlns="http://www.w3.org/2000/svg" width="463.781" height="463.781" style="enable-background:new 0 0 463.781 463.781" xml:space="preserve"><path d="M344.25 319.388zM320.344 281.138H133.875c-8.128 0-14.344 6.215-14.344 14.344v9.562c0 8.127 6.216 14.344 14.344 14.344h191.25c8.128 0 14.344-6.217 14.344-14.344v-9.562c0-8.129-6.216-14.344-14.344-14.344h-4.781zM396.365 147.262C379.631 74.587 314.606 20.081 236.672 20.081c-79.369 0-145.35 55.94-160.65 131.006 24.384 9.084 41.597 32.99 41.597 61.2v65.981c4.303-3.824 10.041-6.693 16.256-6.693h191.25c7.65 0 14.344 3.824 18.646 9.084 0-31.078-.478-65.503-.478-68.85.001-30.122 23.429-57.853 53.072-64.547zM160.65 224.24c-6.694 6.694-12.909 11.476-13.387 10.997-.479-.479 4.303-6.694 10.997-13.388s12.91-11.475 13.388-10.997c.477.479-4.304 6.694-10.998 13.388zm-2.869-38.25c-6.694-6.694-11.475-12.909-10.997-13.387.479-.479 6.694 4.303 13.388 10.997s11.475 12.91 10.997 13.388c-.479.477-6.694-4.304-13.388-10.998zm2.869-47.812c-6.694 6.694-12.909 11.475-13.387 10.997-.479-.478 4.303-6.694 10.997-13.388s12.91-11.475 13.388-10.997c.477.479-4.304 6.694-10.998 13.388zm-2.869-38.25c-6.694-6.694-11.475-12.909-10.997-13.387.479-.479 6.694 4.303 13.388 10.997s11.475 12.91 10.997 13.388c-.479.477-6.694-4.304-13.388-10.998zm21.038 108.534c-3.347 0-5.738-2.391-5.738-5.738 0-3.347 2.391-5.737 5.738-5.737 3.347 0 5.737 2.391 5.737 5.737 0 3.348-2.39 5.738-5.737 5.738zm0-86.062c-3.347 0-5.738-2.391-5.738-5.738 0-3.347 2.391-5.737 5.738-5.737 3.347 0 5.737 2.391 5.737 5.737 0 3.347-2.39 5.738-5.737 5.738zm17.69 101.84c-6.694-6.694-11.475-12.909-10.997-13.387.478-.479 6.693 4.303 13.388 10.997 6.693 6.694 11.475 12.909 10.996 13.388-.956.478-6.693-4.304-13.387-10.998zm2.391-38.25c-6.694 6.694-12.91 11.475-13.388 10.997-.479-.478 4.303-6.694 10.997-13.388s12.91-11.475 13.387-10.997c.479.479-4.302 6.694-10.996 13.388zm-2.391-47.812c-6.694-6.694-11.475-12.909-10.997-13.387.478-.479 6.693 4.303 13.388 10.997 6.693 6.694 11.475 12.91 10.996 13.388-.956.477-6.693-4.304-13.387-10.998zm2.391-38.25c-6.694 6.694-12.91 11.475-13.388 10.997-.479-.478 4.303-6.694 10.997-13.388s12.91-11.475 13.387-10.997c.479.479-4.302 6.694-10.996 13.388zm66.938 124.312c-6.694 6.694-12.91 11.476-13.388 10.997-.956-.957 4.303-6.694 10.997-13.388 6.693-6.694 12.909-11.475 13.387-10.997.478.479-4.303 6.694-10.996 13.388zm-2.869-38.25c-6.693-6.694-11.475-12.909-10.997-13.387.479-.479 6.694 4.303 13.388 10.997s11.475 12.91 10.997 13.388c-.479.477-6.695-4.304-13.388-10.998zm2.869-47.812c-6.694 6.694-12.91 11.475-13.388 10.997-.956-.957 4.303-6.694 10.997-13.388 6.693-6.694 12.909-11.475 13.387-10.997.478.479-4.303 6.694-10.996 13.388zm-2.869-38.25c-6.693-6.694-11.475-12.909-10.997-13.387.479-.479 6.694 4.303 13.388 10.997s11.475 12.91 10.997 13.388c-.479.477-6.695-4.304-13.388-10.998zm21.037 108.534c-3.347 0-5.737-2.391-5.737-5.738 0-3.347 2.391-5.737 5.737-5.737 3.348 0 5.738 2.391 5.738 5.737 0 3.348-2.39 5.738-5.738 5.738zm0-86.062c-3.347 0-5.737-2.391-5.737-5.738 0-3.347 2.391-5.737 5.737-5.737 3.348 0 5.738 2.391 5.738 5.737 0 3.347-2.39 5.738-5.738 5.738zm17.691 101.84c-6.694-6.694-11.476-12.909-10.997-13.387.478-.479 6.693 4.303 13.388 10.997 6.693 6.694 11.475 12.909 10.996 13.388-.956.478-6.693-4.304-13.387-10.998zm2.391-38.25c-6.694 6.694-12.91 11.475-13.388 10.997-.479-.478 4.303-6.694 10.997-13.388 6.693-6.694 12.909-11.475 13.387-10.997.478.479-4.303 6.694-10.996 13.388zm-2.391-47.812c-6.694-6.694-11.476-12.909-10.997-13.387.478-.479 6.693 4.303 13.388 10.997 6.693 6.694 11.475 12.91 10.996 13.388-.956.477-6.693-4.304-13.387-10.998zm2.391-38.25c-6.694 6.694-12.91 11.475-13.388 10.997-.479-.478 4.303-6.694 10.997-13.388 6.693-6.694 12.909-11.475 13.387-10.997.478.479-4.303 6.694-10.996 13.388z"/><path d="M409.753 155.39c-3.825 0-8.128.479-11.953 1.435-24.862 5.737-44.943 29.166-44.943 55.462 0 6.216.956 116.663.956 116.663H108.056s-.478-114.75-.478-117.141c0-22.472-13.388-43.509-32.991-52.116-6.215-2.869-13.387-4.303-20.559-4.303C24.384 155.39 0 179.775 0 209.418c0 29.643 21.038 54.506 51.159 54.506h1.913v179.775h47.812v-28.688H349.51V443.7h47.812V263.925h8.605c30.122 0 57.854-24.385 57.854-54.506-.956-29.644-23.906-54.029-54.028-54.029zm-353.334 61.2c-4.303 0-8.128-3.825-8.128-8.128s3.825-8.128 8.128-8.128 8.128 3.825 8.128 8.128-3.347 8.128-8.128 8.128zm353.812 0c-4.304 0-8.128-3.825-8.128-8.128s3.824-8.128 8.128-8.128c4.303 0 8.128 3.825 8.128 8.128s-3.346 8.128-8.128 8.128z"/></svg>

<?xml version="1.0" encoding="iso-8859-1"?>
<!-- Generator: Adobe Illustrator 16.0.0, SVG Export Plug-In . SVG Version: 6.00 Build 0)  -->
<!DOCTYPE svg PUBLIC "-//W3C//DTD SVG 1.1//EN" "http://www.w3.org/Graphics/SVG/1.1/DTD/svg11.dtd">
<svg version="1.1" id="Capa_1" xmlns="http://www.w3.org/2000/svg" xmlns:xlink="http://www.w3.org/1999/xlink" x="0px" y="0px"
	 width="463.781px" height="463.781px" viewBox="0 0 463.781 463.781" style="enable-background:new 0 0 463.781 463.781;"
	 xml:space="preserve">
<g>
	<g>
		<path d="M344.25,319.388L344.25,319.388L344.25,319.388z"/>
		<path d="M320.344,281.138H133.875c-8.128,0-14.344,6.215-14.344,14.344v9.562c0,8.127,6.216,14.344,14.344,14.344h191.25
			c8.128,0,14.344-6.217,14.344-14.344v-4.781v-4.781c0-8.129-6.216-14.344-14.344-14.344H320.344z"/>
		<path d="M396.365,147.262C379.631,74.587,314.606,20.081,236.672,20.081c-79.369,0-145.35,55.94-160.65,131.006
			c24.384,9.084,41.597,32.99,41.597,61.2v65.981c4.303-3.824,10.041-6.693,16.256-6.693h191.25c7.65,0,14.344,3.824,18.646,9.084
			c0-31.078-0.478-65.503-0.478-68.85C343.294,181.687,366.722,153.956,396.365,147.262z M160.65,224.24
			c-6.694,6.694-12.909,11.476-13.387,10.997c-0.479-0.479,4.303-6.694,10.997-13.388s12.91-11.475,13.388-10.997
			C172.125,211.331,167.344,217.546,160.65,224.24z M157.781,185.99c-6.694-6.694-11.475-12.909-10.997-13.387
			c0.479-0.479,6.694,4.303,13.388,10.997s11.475,12.91,10.997,13.388C170.69,197.465,164.475,192.684,157.781,185.99z
			 M160.65,138.178c-6.694,6.694-12.909,11.475-13.387,10.997c-0.479-0.478,4.303-6.694,10.997-13.388s12.91-11.475,13.388-10.997
			C172.125,125.269,167.344,131.484,160.65,138.178z M157.781,99.928c-6.694-6.694-11.475-12.909-10.997-13.387
			c0.479-0.479,6.694,4.303,13.388,10.997s11.475,12.91,10.997,13.388C170.69,111.403,164.475,106.622,157.781,99.928z
			 M178.819,208.462c-3.347,0-5.738-2.391-5.738-5.738c0-3.347,2.391-5.737,5.738-5.737c3.347,0,5.737,2.391,5.737,5.737
			C184.556,206.072,182.166,208.462,178.819,208.462z M178.819,122.4c-3.347,0-5.738-2.391-5.738-5.738
			c0-3.347,2.391-5.737,5.738-5.737c3.347,0,5.737,2.391,5.737,5.737C184.556,120.009,182.166,122.4,178.819,122.4z M196.509,224.24
			c-6.694-6.694-11.475-12.909-10.997-13.387c0.478-0.479,6.693,4.303,13.388,10.997c6.693,6.694,11.475,12.909,10.996,13.388
			C208.94,235.716,203.203,230.934,196.509,224.24z M198.9,185.99c-6.694,6.694-12.91,11.475-13.388,10.997
			c-0.479-0.478,4.303-6.694,10.997-13.388s12.91-11.475,13.387-10.997C210.375,173.081,205.594,179.296,198.9,185.99z
			 M196.509,138.178c-6.694-6.694-11.475-12.909-10.997-13.387c0.478-0.479,6.693,4.303,13.388,10.997
			c6.693,6.694,11.475,12.91,10.996,13.388C208.94,149.653,203.203,144.872,196.509,138.178z M198.9,99.928
			c-6.694,6.694-12.91,11.475-13.388,10.997c-0.479-0.478,4.303-6.694,10.997-13.388s12.91-11.475,13.387-10.997
			C210.375,87.019,205.594,93.234,198.9,99.928z M265.838,224.24c-6.694,6.694-12.91,11.476-13.388,10.997
			c-0.956-0.957,4.303-6.694,10.997-13.388c6.693-6.694,12.909-11.475,13.387-10.997
			C277.312,211.331,272.531,217.546,265.838,224.24z M262.969,185.99c-6.693-6.694-11.475-12.909-10.997-13.387
			c0.479-0.479,6.694,4.303,13.388,10.997s11.475,12.91,10.997,13.388C275.878,197.465,269.662,192.684,262.969,185.99z
			 M265.838,138.178c-6.694,6.694-12.91,11.475-13.388,10.997c-0.956-0.957,4.303-6.694,10.997-13.388
			c6.693-6.694,12.909-11.475,13.387-10.997C277.312,125.269,272.531,131.484,265.838,138.178z M262.969,99.928
			c-6.693-6.694-11.475-12.909-10.997-13.387c0.479-0.479,6.694,4.303,13.388,10.997s11.475,12.91,10.997,13.388
			C275.878,111.403,269.662,106.622,262.969,99.928z M284.006,208.462c-3.347,0-5.737-2.391-5.737-5.738
			c0-3.347,2.391-5.737,5.737-5.737c3.348,0,5.738,2.391,5.738,5.737C289.744,206.072,287.354,208.462,284.006,208.462z
			 M284.006,122.4c-3.347,0-5.737-2.391-5.737-5.738c0-3.347,2.391-5.737,5.737-5.737c3.348,0,5.738,2.391,5.738,5.737
			C289.744,120.009,287.354,122.4,284.006,122.4z M301.697,224.24c-6.694-6.694-11.476-12.909-10.997-13.387
			c0.478-0.479,6.693,4.303,13.388,10.997c6.693,6.694,11.475,12.909,10.996,13.388C314.128,235.716,308.391,230.934,301.697,224.24
			z M304.088,185.99c-6.694,6.694-12.91,11.475-13.388,10.997c-0.479-0.478,4.303-6.694,10.997-13.388
			c6.693-6.694,12.909-11.475,13.387-10.997C315.562,173.081,310.781,179.296,304.088,185.99z M301.697,138.178
			c-6.694-6.694-11.476-12.909-10.997-13.387c0.478-0.479,6.693,4.303,13.388,10.997c6.693,6.694,11.475,12.91,10.996,13.388
			C314.128,149.653,308.391,144.872,301.697,138.178z M304.088,99.928c-6.694,6.694-12.91,11.475-13.388,10.997
			c-0.479-0.478,4.303-6.694,10.997-13.388c6.693-6.694,12.909-11.475,13.387-10.997C315.562,87.019,310.781,93.234,304.088,99.928z
			"/>
		<path d="M409.753,155.39c-3.825,0-8.128,0.479-11.953,1.435c-24.862,5.737-44.943,29.166-44.943,55.462
			c0,6.216,0.956,116.663,0.956,116.663h-28.688h-4.781H108.056c0,0-0.478-114.75-0.478-117.141
			c0-22.472-13.388-43.509-32.991-52.116c-6.215-2.869-13.387-4.303-20.559-4.303C24.384,155.39,0,179.775,0,209.418
			c0,29.643,21.038,54.506,51.159,54.506c1.435,0,1.435,0,1.913,0v4.781v50.682v86.062v38.25h47.812v-28.688h9.562H349.51V443.7
			h47.812v-38.25v-76.5v-9.562v-55.463c1.434,0,2.868,0,3.824,0c5.26,0,3.825,0,4.781,0c30.122,0,57.854-24.385,57.854-54.506
			C462.825,179.775,439.875,155.39,409.753,155.39z M56.419,216.59c-4.303,0-8.128-3.825-8.128-8.128
			c0-4.303,3.825-8.128,8.128-8.128c4.303,0,8.128,3.825,8.128,8.128C64.547,212.765,61.2,216.59,56.419,216.59z M410.231,216.59
			c-4.304,0-8.128-3.825-8.128-8.128c0-4.303,3.824-8.128,8.128-8.128c4.303,0,8.128,3.825,8.128,8.128
			C418.359,212.765,415.013,216.59,410.231,216.59z"/>
	</g>
</g>
<g>
</g>
<g>
</g>
<g>
</g>
<g>
</g>
<g>
</g>
<g>
</g>
<g>
</g>
<g>
</g>
<g>
</g>
<g>
</g>
<g>
</g>
<g>
</g>
<g>
</g>
<g>
</g>
<g>
</g>
</svg>
